X:1
T:The Rambler from Clare
M:6/8
L:1/16
K:C
E-D| C2E2G2 _B2A2G-E| D2C2C2 C4E-D| C2E2G2 G2f2e-d| c2B-AG-E D4 ED|\
 C2E2 GG G2| f2e-d| e2c-BA-G c3- de d| c2E2G2 _B2A2 GE| D2C2C2 C4||\


